dealnox/img/sprite/icon-discord.svg

<svg width="42" height="42" viewBox="0 0 42 42" fill="none" xmlns="http://www.w3.org/2000/svg">
<path fill-rule="evenodd" clip-rule="evenodd" d="M42 21C42 32.598 32.598 42 21 42C9.40202 42 0 32.598 0 21C0 9.40202 9.40202 0 21 0C32.598 0 42 9.40202 42 21ZM24.6035 12.0013C26.4043 12.3122 28.1267 12.8549 29.7329 13.5916C29.7468 13.5976 29.7587 13.6076 29.7656 13.6216C32.6114 17.8056 34.0169 22.5255 33.4915 27.959C33.4895 27.982 33.4776 28.003 33.4587 28.017C31.3033 29.5992 29.2154 30.5598 27.1562 31.1965C27.1235 31.2065 27.0877 31.1945 27.0678 31.1665C26.5921 30.5048 26.16 29.8071 25.7815 29.0745C25.7597 29.0315 25.7795 28.9795 25.8242 28.9625C26.5106 28.7036 27.1632 28.3938 27.791 28.027C27.8406 27.998 27.8436 27.927 27.7979 27.893C27.6648 27.7941 27.5327 27.6901 27.4066 27.5862C27.3827 27.5672 27.3509 27.5632 27.3241 27.5762C23.2486 29.4583 18.7838 29.4583 14.6596 27.5762C14.6328 27.5642 14.601 27.5682 14.5781 27.5872C14.452 27.6911 14.3199 27.7941 14.1878 27.893C14.1421 27.927 14.1461 27.998 14.1957 28.027C14.8235 28.3868 15.4761 28.7036 16.1615 28.9635C16.2062 28.9805 16.227 29.0315 16.2052 29.0745C15.8347 29.8081 15.4026 30.5058 14.9179 31.1675C14.897 31.1945 14.8622 31.2065 14.8294 31.1965C12.7803 30.5598 10.6924 29.5992 8.53692 28.017C8.51904 28.003 8.50613 27.981 8.50414 27.958C8.0651 23.2581 8.96006 18.4993 12.227 13.6206C12.235 13.6076 12.2469 13.5976 12.2608 13.5916C13.8679 12.8539 15.5903 12.3112 17.3902 12.0013C17.4229 11.9963 17.4557 12.0113 17.4726 12.0403C17.6951 12.4341 17.9494 12.9389 18.1212 13.3517C20.0184 13.0618 21.9454 13.0618 23.8823 13.3517C24.0542 12.9479 24.2995 12.4341 24.521 12.0403C24.5379 12.0103 24.5707 11.9953 24.6035 12.0013ZM14.5563 22.5575C14.5563 23.9568 15.5794 25.0963 16.821 25.0963C18.0825 25.0963 19.0857 23.9568 19.0857 22.5575C19.1056 21.1681 18.0924 20.0186 16.821 20.0186C15.5595 20.0186 14.5563 21.1581 14.5563 22.5575ZM22.9298 22.5575C22.9298 23.9568 23.9529 25.0963 25.1945 25.0963C26.4659 25.0963 27.4592 23.9568 27.4592 22.5575C27.4791 21.1681 26.4659 20.0186 25.1945 20.0186C23.933 20.0186 22.9298 21.1581 22.9298 22.5575Z" fill="#968E8E"/>
</svg>

<svg width="42" height="42" fill="none" xmlns="http://www.w3.org/2000/svg"><path fill-rule="evenodd" clip-rule="evenodd" d="M42 21c0 11.598-9.402 21-21 21S0 32.598 0 21 9.402 0 21 0s21 9.402 21 21zm-17.396-8.999c1.8.311 3.523.854 5.129 1.59a.064.064 0 0 1 .033.03c2.845 4.185 4.25 8.905 3.726 14.338a.08.08 0 0 1-.033.058 20.83 20.83 0 0 1-6.303 3.18.08.08 0 0 1-.088-.03 16.784 16.784 0 0 1-1.287-2.093.08.08 0 0 1 .043-.112 12.919 12.919 0 0 0 1.967-.935.08.08 0 0 0 .007-.134 9.986 9.986 0 0 1-.391-.307.078.078 0 0 0-.083-.01c-4.075 1.882-8.54 1.882-12.664 0a.078.078 0 0 0-.082.011c-.126.104-.258.207-.39.306a.08.08 0 0 0 .008.134c.627.36 1.28.677 1.966.936a.08.08 0 0 1 .043.111 14.94 14.94 0 0 1-1.287 2.093.082.082 0 0 1-.089.03 20.903 20.903 0 0 1-6.292-3.18.087.087 0 0 1-.033-.059c-.439-4.7.456-9.459 3.723-14.337a.074.074 0 0 1 .034-.03 20.728 20.728 0 0 1 5.13-1.59.08.08 0 0 1 .082.04c.222.393.476.898.648 1.31a19.19 19.19 0 0 1 5.761 0c.172-.403.417-.917.639-1.31a.078.078 0 0 1 .082-.04zM14.556 22.558c0 1.399 1.023 2.538 2.265 2.538 1.261 0 2.265-1.14 2.265-2.538.02-1.39-.994-2.54-2.265-2.54-1.262 0-2.265 1.14-2.265 2.54zm8.374 0c0 1.399 1.023 2.538 2.265 2.538 1.27 0 2.264-1.14 2.264-2.538.02-1.39-.993-2.54-2.264-2.54-1.262 0-2.265 1.14-2.265 2.54z" fill="#968E8E"/></svg>
